Numix-GalliumOS/24/categories/preferences-certificates.svg

<?xml version="1.0" encoding="UTF-8" standalone="no"?>
<svg
   xmlns:dc="http://purl.org/dc/elements/1.1/"
   xmlns:cc="http://creativecommons.org/ns#"
   xmlns:rdf="http://www.w3.org/1999/02/22-rdf-syntax-ns#"
   xmlns:svg="http://www.w3.org/2000/svg"
   xmlns="http://www.w3.org/2000/svg"
   xmlns:sodipodi="http://sodipodi.sourceforge.net/DTD/sodipodi-0.dtd"
   xmlns:inkscape="http://www.inkscape.org/namespaces/inkscape"
   width="24"
   height="24"
   viewBox="0 0 24 24"
   id="svg2"
   version="1.1"
   inkscape:version="0.91 r"
   sodipodi:docname="preferences-certificates.svg">
  <metadata
     id="metadata36">
    <rdf:RDF>
      <cc:Work
         rdf:about="">
        <dc:format>image/svg+xml</dc:format>
        <dc:type
           rdf:resource="http://purl.org/dc/dcmitype/StillImage" />
        <dc:title />
      </cc:Work>
    </rdf:RDF>
  </metadata>
  <defs
     id="defs34" />
  <sodipodi:namedview
     pagecolor="#ffffff"
     bordercolor="#666666"
     borderopacity="1"
     objecttolerance="10"
     gridtolerance="10"
     guidetolerance="10"
     inkscape:pageopacity="0"
     inkscape:pageshadow="2"
     inkscape:window-width="1366"
     inkscape:window-height="704"
     id="namedview32"
     showgrid="false"
     inkscape:zoom="16"
     inkscape:cx="0.55932203"
     inkscape:cy="12"
     inkscape:window-x="0"
     inkscape:window-y="27"
     inkscape:window-maximized="1"
     inkscape:current-layer="svg2" />
  <path
     inkscape:connector-curvature="0"
     style="fill:#dc6462;fill-opacity:1"
     d="m 11.994141,3.0000002 c -0.712609,0 -1.309906,0.4052154 -1.583985,0.9765625 C 9.867475,3.6104569 9.111985,3.5385837 8.498046,3.8769537 7.884108,4.2097771 7.560795,4.8474801 7.621093,5.4687506 6.963301,5.4632206 6.276602,5.7196688 5.925781,6.2910162 5.569476,6.8679101 5.642443,7.5756087 6.037109,8.0859381 5.428649,8.3411026 5,8.906619 5,9.572266 c 0,0.665647 0.428649,1.233116 1.037109,1.488281 -0.389195,0.510329 -0.467641,1.21248 -0.111328,1.794922 0.350821,0.571347 1.03752,0.877735 1.695312,0.822265 -0.06029,0.62127 0.263015,1.258972 0.876953,1.591797 C 8.657731,15.356791 8.827116,15.4047 9,15.435547 L 9,22 l 3,-3 3,3 0,-6.548828 c 0.172782,-0.02185 0.342782,-0.06557 0.501953,-0.181641 0.613938,-0.332822 0.937249,-0.970527 0.876953,-1.591797 0.657793,0.0055 1.34449,-0.250918 1.695313,-0.822265 0.356304,-0.577141 0.28336,-1.284593 -0.111328,-1.794922 C 18.571353,10.805445 19,10.237913 19,9.572266 19,8.906619 18.571347,8.3411026 17.962891,8.0859381 18.352084,7.5756083 18.430536,6.8734568 18.074219,6.2910158 17.723399,5.7196692 17.036701,5.4132796 16.378906,5.4687502 16.439214,4.8474797 16.115892,4.2097767 15.501953,3.8769533 14.888016,3.5441298 14.132524,3.6104571 13.589844,3.9765627 13.315769,3.4052156 12.718466,3.0000002 12.005859,3.0000002 l -0.01172,0 z m 0,2.4335938 c 2.411902,0 4.375,1.8386746 4.375,4.107422 0,2.268746 -1.957616,4.103515 -4.375,4.103515 -2.411903,0 -4.373048,-1.834769 -4.373048,-4.103515 0,-2.2687474 1.955662,-4.107422 4.373048,-4.107422 z m 0,0.8222656 c -1.929524,0 -3.496095,1.471268 -3.496095,3.2851564 0,1.813888 1.566571,3.283203 3.496095,3.283203 1.929518,0 3.498045,-1.469315 3.498047,-3.283203 0,-1.8138884 -1.568529,-3.2851564 -3.498047,-3.2851564 z"
     id="path39" />
</svg>

<svg xmlns="http://www.w3.org/2000/svg" viewBox="0 0 24 24">
 <path d="m 11.994 3 c -0.713 0 -1.31 0.405 -1.584 0.977 c -0.543 -0.366 -1.298 -0.438 -1.912 -0.1 -0.614 0.333 -0.937 0.971 -0.877 1.592 -0.658 -0.006 -1.344 0.251 -1.695 0.822 -0.356 0.577 -0.283 1.285 0.111 1.795 -0.608 0.255 -1.037 0.821 -1.037 1.486 c 0 0.666 0.429 1.233 1.037 1.488 -0.389 0.51 -0.468 1.212 -0.111 1.795 0.351 0.571 1.038 0.878 1.695 0.822 -0.06 0.621 0.263 1.259 0.877 1.592 c 0.16 0.087 0.329 0.135 0.502 0.166 l 0 6.564 l 3 -3 3 3 0 -6.549 c 0.173 -0.022 0.343 -0.066 0.502 -0.182 0.614 -0.333 0.937 -0.971 0.877 -1.592 0.658 0.005 1.344 -0.251 1.695 -0.822 0.356 -0.577 0.283 -1.285 -0.111 -1.795 c 0.608 -0.255 1.037 -0.823 1.037 -1.488 0 -0.666 -0.429 -1.231 -1.037 -1.486 0.389 -0.51 0.468 -1.212 0.111 -1.795 -0.351 -0.571 -1.038 -0.878 -1.695 -0.822 0.06 -0.621 -0.263 -1.259 -0.877 -1.592 -0.614 -0.333 -1.369 -0.266 -1.912 0.1 -0.274 -0.571 -0.871 -0.977 -1.584 -0.977 l -0.012 0 z m 0 2.434 c 2.412 0 4.375 1.839 4.375 4.107 0 2.269 -1.958 4.104 -4.375 4.104 -2.412 0 -4.373 -1.835 -4.373 -4.104 0 -2.269 1.956 -4.107 4.373 -4.107 z m 0 0.822 c -1.93 0 -3.496 1.471 -3.496 3.285 0 1.814 1.567 3.283 3.496 3.283 1.93 0 3.498 -1.469 3.498 -3.283 0 -1.814 -1.569 -3.285 -3.498 -3.285 z" style="fill:#dc6462;fill-opacity:1"/>
</svg>
